X: 26230
T: Meelick Team, The
R: jig
M: 6/8
K: Edorian
|:B2 e dBA|BAF EDB,|DEG Eed|BAG ABd|
e/f/ge dBA|BAF EDB,|DEG Eed|BAF E3:|
|:e2 f gfe|beg fed|Beg beg|fed e2 f|
g2 f edB|BAF DFA|d2 e fed|BAF E3:|

